public/piece/anarcandy/bP.svg

<svg xmlns="http://www.w3.org/2000/svg" width="512" height="512" fill="none"><path fill="#00173C" d="M387.927 402.463c-1.565-7.227-8.839-12.943-16.291-12.943h-22.915l-68.284-251.299c-.518-5.688-16.238-7.221-25.581-7.221s-25.065 1.533-25.589 7.221L160.995 389.52h-20.46c-7.455 0-14.732 5.716-16.277 12.943l-15.84 66.288c-2.253 9.429 4.895 18.486 14.589 18.486H388.25c9.613 0 16.744-8.914 14.634-18.292l-14.957-66.482Z"/><path fill="#FF9CAE" d="M254.995 449.46c-50.037 0-90.788-10.522-92.609-23.662.518-7.027 5.641-8.262 8.137-8.002 14.517 8.541 46.896 14.493 84.529 14.493 37.626 0 70.004-5.947 84.519-14.484 2.693-.264 8.067.966 8.025 7.993-1.799 13.143-42.557 23.662-92.601 23.662ZM204.735 315.856c19.86 4.898 59.47 9.731 100.722-.134 3.33-.796 5.28-4.214 4.383-7.518-.928-3.419-4.521-5.358-7.95-4.469-32.637 8.459-72.353 4.013-93.635-.392-3.487-.722-6.995 1.333-7.926 4.77-.918 3.39.996 6.902 4.406 7.743ZM237.316 196.44c8.99 1.13 22.641 1.921 35.581.107 3.464-.485 5.562-3.952 4.645-7.328-.858-3.161-4.056-5.065-7.298-4.595-11.27 1.635-22.86.924-30.504-.107-3.2-.432-6.329 1.484-7.174 4.601-.924 3.413 1.242 6.882 4.75 7.322Z"/></svg>

<svg width="512" height="512" viewBox="0 0 512 512" fill="none" xmlns="http://www.w3.org/2000/svg">
<path d="M387.927 402.463C386.362 395.236 379.088 389.52 371.636 389.52H348.721L280.437 138.221C279.919 132.533 264.199 131 254.856 131C245.513 131 229.791 132.533 229.267 138.221L160.995 389.52H140.535C133.08 389.52 125.803 395.236 124.258 402.463L108.418 468.751C106.165 478.18 113.313 487.237 123.007 487.237H388.25C397.863 487.237 404.994 478.323 402.884 468.945L387.927 402.463Z" fill="#00173C"/>
<path d="M254.995 449.46C204.958 449.46 164.207 438.938 162.386 425.798C162.904 418.771 168.027 417.536 170.523 417.796C185.04 426.337 217.419 432.289 255.052 432.289C292.678 432.289 325.056 426.342 339.571 417.805C342.264 417.541 347.638 418.771 347.596 425.798C345.797 438.941 305.039 449.46 254.995 449.46Z" fill="#FF9CAE"/>
<path d="M204.735 315.856C224.595 320.754 264.205 325.587 305.457 315.722C308.787 314.926 310.737 311.508 309.84 308.204C308.912 304.785 305.319 302.846 301.89 303.735C269.253 312.194 229.537 307.748 208.255 303.343C204.768 302.621 201.26 304.676 200.329 308.113C199.411 311.503 201.325 315.015 204.735 315.856Z" fill="#FF9CAE"/>
<path d="M237.316 196.44C246.306 197.57 259.957 198.361 272.897 196.547C276.361 196.062 278.459 192.595 277.542 189.219C276.684 186.058 273.486 184.154 270.244 184.624C258.974 186.259 247.384 185.548 239.74 184.517C236.54 184.085 233.411 186.001 232.566 189.118C231.642 192.531 233.808 196 237.316 196.44Z" fill="#FF9CAE"/>
</svg>
